svgs/light/trash-can-undo.svg

<svg xmlns="http://www.w3.org/2000/svg" viewBox="0 0 448 512"><!-- Font Awesome Pro 6.0.0-alpha2 by @fontawesome - https://fontawesome.com License - https://fontawesome.com/license (Commercial License) --><path d="M400 128C391.156 128 384 135.156 384 144V432C384 458.469 362.469 480 336 480H112C85.531 480 64 458.469 64 432V144C64 135.156 56.844 128 48 128S32 135.156 32 144V432C32 476.109 67.891 512 112 512H336C380.109 512 416 476.109 416 432V144C416 135.156 408.844 128 400 128ZM432 64H336L302.375 19.25C293.375 7.125 279.125 0 264 0H184C168.875 0 154.625 7.125 145.625 19.25L112 64H16C7.201 64 0 71.199 0 80C0 88.799 7.201 96 16 96H432C440.801 96 448 88.799 448 80C448 71.199 440.801 64 432 64ZM152 64L171.25 38.375C174.25 34.375 179 32 184 32H264C269 32 273.75 34.375 276.75 38.375L296 64H152ZM219.312 196.688C213.062 190.438 202.937 190.438 196.688 196.688L116.688 276.688C110.438 282.938 110.438 293.063 116.688 299.312L196.688 379.312C199.812 382.438 203.906 384 208 384S216.188 382.438 219.312 379.312C225.562 373.062 225.562 362.937 219.312 356.688L166.625 304H240C266.469 304 288 325.531 288 352V400C288 408.844 295.156 416 304 416S320 408.844 320 400V352C320 307.891 284.109 272 240 272H166.625L219.312 219.312C225.562 213.062 225.562 202.938 219.312 196.688Z"/></svg>

<svg xmlns="http://www.w3.org/2000/svg" viewBox="0 0 448 512"><!--! Font Awesome Pro 6.0.0-alpha3 by @fontawesome - https://fontawesome.com License - https://fontawesome.com/license (Commercial License) --><path d="M400 128C391.2 128 384 135.2 384 144v288c0 26.47-21.53 48-48 48h-224C85.53 480 64 458.5 64 432v-288C64 135.2 56.84 128 48 128S32 135.2 32 144v288C32 476.1 67.89 512 112 512h224c44.11 0 80-35.89 80-80v-288C416 135.2 408.8 128 400 128zM432 64h-96l-33.63-44.75C293.4 7.125 279.1 0 264 0h-80C168.9 0 154.6 7.125 145.6 19.25L112 64h-96C7.201 64 0 71.2 0 80C0 88.8 7.201 96 16 96h416C440.8 96 448 88.8 448 80C448 71.2 440.8 64 432 64zM152 64l19.25-25.62C174.3 34.38 179 32 184 32h80c5 0 9.75 2.375 12.75 6.375L296 64H152zM219.3 196.7c-6.25-6.25-16.38-6.25-22.62 0l-80 80c-6.25 6.25-6.25 16.38 0 22.62l80 80C199.8 382.4 203.9 384 208 384s8.188-1.562 11.31-4.688c6.25-6.25 6.25-16.38 0-22.62L166.6 304H240c26.47 0 48 21.53 48 48v48c0 8.844 7.156 16 16 16s16-7.156 16-16V352c0-44.11-35.89-80-80-80H166.6l52.69-52.69C225.6 213.1 225.6 202.9 219.3 196.7z"/></svg>
